gateways-e-adquirentes/moip.svg

<svg enable-background="new 0 0 120 80" height="80" viewBox="0 0 120 80" width="120" xmlns="http://www.w3.org/2000/svg"><switch><foreignObject height="1" requiredExtensions="http://ns.adobe.com/AdobeIllustrator/10.0/" width="1"/><g><path d="m120 70c0 5.5-4.5 10-10 10h-100c-5.5 0-10-4.5-10-10v-60c0-5.5 4.5-10 10-10h100c5.5 0 10 4.5 10 10z" fill="#f5f5f5"/><path d="m110 0h-100c-5.5 0-10 4.5-10 10v60c0 5.5 4.5 10 10 10h100c5.5 0 10-4.5 10-10v-60c0-5.5-4.5-10-10-10zm0 2c4.412 0 8 3.588 8 8v60c0 4.412-3.588 8-8 8h-100c-4.412 0-8-3.588-8-8v-60c0-4.412 3.588-8 8-8z" fill="#fff"/><g fill="#142d49"><path d="m14.406 38.851c.166-.779.32-1.561.646-2.295 1.184-2.665 3.172-4.386 6.07-4.832 2.12-.326 4.167.056 5.978 1.319.685.478 1.336.46 2.039-.025 4.564-3.148 10.854-1.068 12.46 4.58.246.866.352 1.75.353 2.647.005 4.095.007 8.19.01 12.285.001.945-.321 1.268-1.255 1.269-.966.001-1.933.003-2.899-.001-.735-.003-1.092-.359-1.092-1.088.002-4.3.002-8.601.011-12.901.003-1.675-1.303-3.037-2.944-3.045-1.645-.009-2.984 1.33-2.984 3.001-.002 4.264.003 8.528.005 12.793 0 .915-.326 1.241-1.242 1.242-.966.001-1.933.003-2.899-.001-.747-.003-1.106-.364-1.107-1.116-.003-4.119-.017-8.239.005-12.358.004-.833-.06-1.618-.581-2.299-.807-1.054-1.877-1.474-3.164-1.165-1.232.296-2.006 1.107-2.309 2.347-.066.27-.087.547-.086.826.004 3.672.003 7.345.009 11.017.001.531.052 1.061.043 1.591-.014.81-.385 1.155-1.198 1.157-.894.002-1.788-.017-2.682.007-.522.014-.919-.148-1.187-.601 0-4.784 0-9.569 0-14.354z"/><path d="m77.622 64.66c-.532-.199-.746-.579-.745-1.148.009-7.079-.001-14.158.008-21.238.006-4.894 3.392-9.269 8.022-10.401 4.876-1.191 9.751 1.072 11.997 5.568 2.231 4.467 1.406 9.964-2.055 13.344-2.226 2.173-4.938 3.153-8.042 2.993-1.175-.06-2.316-.334-3.401-.812-.132-.058-.265-.122-.403-.161-.392-.109-.569.025-.586.434-.006.145-.004.29-.004.435 0 3.262-.006 6.524.006 9.785.002.575-.199.98-.738 1.199-1.353.002-2.706.002-4.059.002zm15.153-21.94c.021-1.137-.297-2.174-.881-3.135-1.698-2.793-5.332-3.389-7.678-1.263-2.311 2.094-2.61 5.568-.691 8.027 1.662 2.13 4.483 2.649 6.695 1.183 1.708-1.132 2.5-2.786 2.555-4.812z"/><path d="m44.609 42.842c.015-3.25.978-5.898 3.062-8.075 2.007-2.097 4.493-3.158 7.411-3.186 3.066-.029 5.676 1.056 7.772 3.28 1.711 1.815 2.657 4.004 2.904 6.494.258 2.595-.213 5.038-1.599 7.257-1.885 3.018-4.616 4.708-8.179 4.973-3.223.24-5.997-.79-8.256-3.108-2.128-2.186-3.087-4.852-3.115-7.635zm15.697-.11c.037-1.171-.322-2.217-.945-3.184-1.568-2.436-4.764-2.996-7.019-1.23-2.464 1.93-2.827 5.671-.781 8.05 1.586 1.844 4.048 2.324 6.047 1.138 1.803-1.07 2.646-2.707 2.698-4.774z"/><path d="m73.944 43.688c0 2.379-.003 4.757.002 7.136.001.579.047 1.157.045 1.736-.002.899-.359 1.24-1.261 1.241-.966.001-1.932.003-2.898-.001-.738-.003-1.121-.37-1.122-1.115-.001-.941.043-1.882.044-2.822.005-5.627.002-11.253.002-16.88 0-.121-.001-.241 0-.362.009-.837.38-1.162 1.189-1 2.022.406 3.277 1.643 3.838 3.606.126.442.162.9.161 1.362-.003 2.366 0 4.732 0 7.099z"/><path d="m68.758 26.427c.003-1.398 1.307-2.682 2.715-2.674 1.352.008 2.662 1.311 2.675 2.66.013 1.374-1.363 2.747-2.734 2.729-1.372-.018-2.659-1.334-2.656-2.715z"/></g><path d="m105.532 22.746c.182-.685-.029-1.269-.745-2.344-.004-.005-.007-.009-.01-.015-.709-1.05-1.708-1.858-2.75-2.622-1.346-.988-2.808-1.743-4.415-2.186-.011-.004-.022-.008-.033-.012-.874-.274-2.199-.469-3.012.456-.002.002-.003.004-.005.006-.204.19-.381.413-.53.669-.049.084-.094.169-.14.255-.272.464-.363.778-.363.778h.003c-.067.171-.13.345-.184.522-.627 2.08-.715 4.206-.49 6.348.114 1.083.364 2.14.868 3.124.552 1.077 1.419 1.579 2.623 1.479.336-.028.673-.08 1-.159 2.022-.488 3.793-1.477 5.415-2.75.769-.603 1.48-1.255 2.022-2.038l.001.002s.229-.286.501-.882c.022-.048.043-.097.064-.147.026-.061.053-.121.079-.187.027-.067.045-.13.065-.195.01-.031.024-.059.034-.09.002-.004.002-.008.002-.012z" fill="#209ad4"/><path d="m96.847 24.793c-.144.143-.316.218-.504.208-.331.009-.558-.141-.68-.415-.12-.27-.103-.552.108-.778.279-.3.578-.582.864-.877.418-.431.42-.838.007-1.265-.268-.278-.551-.542-.816-.823-.315-.334-.311-.725-.005-1.026.321-.316.676-.321 1.019.015.655.641 1.305 1.29 1.945 1.946.317.325.32.745.005 1.068-.639.656-1.294 1.299-1.943 1.947z" fill="#fff"/><path d="m102.239 22.813c-.65.665-1.313 1.317-1.97 1.974-.143.143-.312.227-.465.215-.367.004-.581-.15-.714-.422-.145-.297-.076-.574.134-.805.268-.295.558-.569.837-.853.434-.442.436-.812.005-1.251-.271-.276-.551-.542-.817-.822-.307-.324-.315-.7-.037-1.003.297-.324.699-.371 1.028-.058.69.658 1.365 1.333 2.024 2.022.304.319.283.688-.025 1.003z" fill="#fff"/></g></switch></svg>

<?xml version="1.0" encoding="UTF-8"?>
<svg width="120px" height="80px" viewBox="0 0 120 80" version="1.1" xmlns="http://www.w3.org/2000/svg" xmlns:xlink="http://www.w3.org/1999/xlink">
    <!-- Generator: Sketch 52.4 (67378) - http://www.bohemiancoding.com/sketch -->
    <title>moip</title>
    <desc>Created with Sketch.</desc>
    <g id="Page-1" stroke="none" stroke-width="1" fill="none" fill-rule="evenodd">
        <g id="moip">
            <path d="M120,70 C120,75.5 115.5,80 110,80 L10,80 C4.5,80 0,75.5 0,70 L0,10 C0,4.5 4.5,0 10,0 L110,0 C115.5,0 120,4.5 120,10 L120,70 Z" id="Path" fill="#F5F5F5"></path>
            <path d="M110,0 L10,0 C4.5,0 0,4.5 0,10 L0,70 C0,75.5 4.5,80 10,80 L110,80 C115.5,80 120,75.5 120,70 L120,10 C120,4.5 115.5,0 110,0 Z M110,2 C114.412,2 118,5.588 118,10 L118,70 C118,74.412 114.412,78 110,78 L10,78 C5.588,78 2,74.412 2,70 L2,10 C2,5.588 5.588,2 10,2 L110,2 Z" id="Shape" fill="#D0D0D0" fill-rule="nonzero"></path>
            <path d="M14.406,38.851 C14.572,38.072 14.726,37.29 15.052,36.556 C16.236,33.891 18.224,32.17 21.122,31.724 C23.242,31.398 25.289,31.78 27.1,33.043 C27.785,33.521 28.436,33.503 29.139,33.018 C33.703,29.87 39.993,31.95 41.599,37.598 C41.845,38.464 41.951,39.348 41.952,40.245 C41.957,44.34 41.959,48.435 41.962,52.53 C41.963,53.475 41.641,53.798 40.707,53.799 C39.741,53.8 38.774,53.802 37.808,53.798 C37.073,53.795 36.716,53.439 36.716,52.71 C36.718,48.41 36.718,44.109 36.727,39.809 C36.73,38.134 35.424,36.772 33.783,36.764 C32.138,36.755 30.799,38.094 30.799,39.765 C30.797,44.029 30.802,48.293 30.804,52.558 C30.804,53.473 30.478,53.799 29.562,53.8 C28.596,53.801 27.629,53.803 26.663,53.799 C25.916,53.796 25.557,53.435 25.556,52.683 C25.553,48.564 25.539,44.444 25.561,40.325 C25.565,39.492 25.501,38.707 24.98,38.026 C24.173,36.972 23.103,36.552 21.816,36.861 C20.584,37.157 19.81,37.968 19.507,39.208 C19.441,39.478 19.42,39.755 19.421,40.034 C19.425,43.706 19.424,47.379 19.43,51.051 C19.431,51.582 19.482,52.112 19.473,52.642 C19.459,53.452 19.088,53.797 18.275,53.799 C17.381,53.801 16.487,53.782 15.593,53.806 C15.071,53.82 14.674,53.658 14.406,53.205 C14.406,48.421 14.406,43.636 14.406,38.851 Z M77.622,64.66 C77.09,64.461 76.876,64.081 76.877,63.512 C76.886,56.433 76.876,49.354 76.885,42.274 C76.891,37.38 80.277,33.005 84.907,31.873 C89.783,30.682 94.658,32.945 96.904,37.441 C99.135,41.908 98.31,47.405 94.849,50.785 C92.623,52.958 89.911,53.938 86.807,53.778 C85.632,53.718 84.491,53.444 83.406,52.966 C83.274,52.908 83.141,52.844 83.003,52.805 C82.611,52.696 82.434,52.83 82.417,53.239 C82.411,53.384 82.413,53.529 82.413,53.674 C82.413,56.936 82.407,60.198 82.419,63.459 C82.421,64.034 82.22,64.439 81.681,64.658 C80.328,64.66 78.975,64.66 77.622,64.66 Z M92.775,42.72 C92.796,41.583 92.478,40.546 91.894,39.585 C90.196,36.792 86.562,36.196 84.216,38.322 C81.905,40.416 81.606,43.89 83.525,46.349 C85.187,48.479 88.008,48.998 90.22,47.532 C91.928,46.4 92.72,44.746 92.775,42.72 Z M44.609,42.842 C44.624,39.592 45.587,36.944 47.671,34.767 C49.678,32.67 52.164,31.609 55.082,31.581 C58.148,31.552 60.758,32.637 62.854,34.861 C64.565,36.676 65.511,38.865 65.758,41.355 C66.016,43.95 65.545,46.393 64.159,48.612 C62.274,51.63 59.543,53.32 55.98,53.585 C52.757,53.825 49.983,52.795 47.724,50.477 C45.596,48.291 44.637,45.625 44.609,42.842 Z M60.306,42.732 C60.343,41.561 59.984,40.515 59.361,39.548 C57.793,37.112 54.597,36.552 52.342,38.318 C49.878,40.248 49.515,43.989 51.561,46.368 C53.147,48.212 55.609,48.692 57.608,47.506 C59.411,46.436 60.254,44.799 60.306,42.732 Z M73.944,43.688 C73.944,46.067 73.941,48.445 73.946,50.824 C73.947,51.403 73.993,51.981 73.991,52.56 C73.989,53.459 73.632,53.8 72.73,53.801 C71.764,53.802 70.798,53.804 69.832,53.8 C69.094,53.797 68.711,53.43 68.71,52.685 C68.709,51.744 68.753,50.803 68.754,49.863 C68.759,44.236 68.756,38.61 68.756,32.983 C68.756,32.862 68.755,32.742 68.756,32.621 C68.765,31.784 69.136,31.459 69.945,31.621 C71.967,32.027 73.222,33.264 73.783,35.227 C73.909,35.669 73.945,36.127 73.944,36.589 C73.941,38.955 73.944,41.321 73.944,43.688 Z M68.758,26.427 C68.761,25.029 70.065,23.745 71.473,23.753 C72.825,23.761 74.135,25.064 74.148,26.413 C74.161,27.787 72.785,29.16 71.414,29.142 C70.042,29.124 68.755,27.808 68.758,26.427 Z" id="Combined-Shape" fill="#142D49"></path>
            <path d="M105.532,22.746 C105.714,22.061 105.503,21.477 104.787,20.402 C104.783,20.397 104.78,20.393 104.777,20.387 C104.068,19.337 103.069,18.529 102.027,17.765 C100.681,16.777 99.219,16.022 97.612,15.579 C97.601,15.575 97.59,15.571 97.579,15.567 C96.705,15.293 95.38,15.098 94.567,16.023 C94.565,16.025 94.564,16.027 94.562,16.029 C94.358,16.219 94.181,16.442 94.032,16.698 C93.983,16.782 93.938,16.867 93.892,16.953 C93.62,17.417 93.529,17.731 93.529,17.731 L93.532,17.731 C93.465,17.902 93.402,18.076 93.348,18.253 C92.721,20.333 92.633,22.459 92.858,24.601 C92.972,25.684 93.222,26.741 93.726,27.725 C94.278,28.802 95.145,29.304 96.349,29.204 C96.685,29.176 97.022,29.124 97.349,29.045 C99.371,28.557 101.142,27.568 102.764,26.295 C103.533,25.692 104.244,25.04 104.786,24.257 L104.787,24.259 C104.787,24.259 105.016,23.973 105.288,23.377 C105.31,23.329 105.331,23.28 105.352,23.23 C105.378,23.169 105.405,23.109 105.431,23.043 C105.458,22.976 105.476,22.913 105.496,22.848 C105.506,22.817 105.52,22.789 105.53,22.758 C105.532,22.754 105.532,22.75 105.532,22.746 Z" id="Path" fill="#209AD4"></path>
            <path d="M96.847,24.793 C96.703,24.936 96.531,25.011 96.343,25.001 C96.012,25.01 95.785,24.86 95.663,24.586 C95.543,24.316 95.56,24.034 95.771,23.808 C96.05,23.508 96.349,23.226 96.635,22.931 C97.053,22.5 97.055,22.093 96.642,21.666 C96.374,21.388 96.091,21.124 95.826,20.843 C95.511,20.509 95.515,20.118 95.821,19.817 C96.142,19.501 96.497,19.496 96.84,19.832 C97.495,20.473 98.145,21.122 98.785,21.778 C99.102,22.103 99.105,22.523 98.79,22.846 C98.151,23.502 97.496,24.145 96.847,24.793 Z M102.239,22.813 C101.589,23.478 100.926,24.13 100.269,24.787 C100.126,24.93 99.957,25.014 99.804,25.002 C99.437,25.006 99.223,24.852 99.09,24.58 C98.945,24.283 99.014,24.006 99.224,23.775 C99.492,23.48 99.782,23.206 100.061,22.922 C100.495,22.48 100.497,22.11 100.066,21.671 C99.795,21.395 99.515,21.129 99.249,20.849 C98.942,20.525 98.934,20.149 99.212,19.846 C99.509,19.522 99.911,19.475 100.24,19.788 C100.93,20.446 101.605,21.121 102.264,21.81 C102.568,22.129 102.547,22.498 102.239,22.813 Z" id="Combined-Shape" fill="#FFFFFF"></path>
        </g>
    </g>
</svg>
